src/topics/icons/rkt.svg

<svg height="256" preserveAspectRatio="xMidYMid" viewBox="0 0 256 256" width="256" xmlns="http://www.w3.org/2000/svg"><path d="m169.140203 255.189829s6.040056-29.174432 31.291404-64.193075c17.551288-10.140329 35.152314-22.565498 50.061273-37.471347 13.783635-68.352413-7.140509-141.6879494-7.140509-141.6879494s-73.335536-20.92103587-141.68484-7.13739941c-14.9120672 14.91517541-27.331018 32.51620151-37.4713477 50.06127241-35.0279693 25.2451312-64.1961833 31.2851866-64.1961833 31.2851866s23.3302191 16.0187368 34.5865447 34.1948588c-4.7934973 13.827156-7.0472494 22.736471-7.0472494 22.736471 1.824762 8.533172 7.224441 18.486984 14.6758114 28.530946-5.1447718 4.078515-11.1755014 8.321785-17.7284796 11.868725-.7833731.432099-1.5853979.845546-2.3843142 1.249667 5.6234998 18.549156 30.4614013 41.910461 48.5535899 48.205424.3668176-.72431.7491783-1.439293 1.1377563-2.151167 3.6495239-6.730171 8.0295744-12.913223 12.2075644-18.151253 10.1372211 7.355003 20.0444035 12.835506 28.2076495 15.111019 0 0 8.918641-2.250644 22.742689-7.044141 18.169904 11.259434 34.188641 34.592762 34.188641 34.592762zm-51.553411-61.780783c-10.404564-4.507504-24.2223946-15.60529-33.6415238-25.030637-12.7360303-12.73603-19.6371745-23.585125-22.2857217-30.337056 4.4733092-15.247797 21.6577797-67.9203139 54.6620345-103.3306438 39.802816-6.7581474 81.498783.5067057 99.646926 4.507504 3.99769 18.1419266 11.271868 59.8472191 4.507504 99.6469258-35.192726 32.830172-87.103629 49.902732-102.889219 54.543907z" fill="#54a3da"/><circle cx="152.474869" cy="103.050868" fill="#f1616e" r="27.259519"/></svg>

<?xml version="1.0" encoding="UTF-8" standalone="no"?>
<svg width="256px" height="256px" viewBox="0 0 256 256" version="1.1" xmlns="http://www.w3.org/2000/svg" xmlns:xlink="http://www.w3.org/1999/xlink" preserveAspectRatio="xMidYMid">
	<g>
		<path d="M169.140203,255.189829 C169.140203,255.189829 175.180259,226.015397 200.431607,190.996754 C217.982895,180.856425 235.583921,168.431256 250.49288,153.525407 C264.276515,85.172994 243.352371,11.8374576 243.352371,11.8374576 C243.352371,11.8374576 170.016835,-9.08357827 101.667531,4.70005819 C86.7554638,19.6152336 74.336513,37.2162597 64.1961833,54.7613306 C29.168214,80.0064618 0,86.0465172 0,86.0465172 C0,86.0465172 23.3302191,102.065254 34.5865447,120.241376 C29.7930474,134.068532 27.5392953,142.977847 27.5392953,142.977847 C29.3640573,151.511019 34.7637363,161.464831 42.2151067,171.508793 C37.0703349,175.587308 31.0396053,179.830578 24.4866271,183.377518 C23.703254,183.809617 22.9012292,184.223064 22.1023129,184.627185 C27.7258127,203.176341 52.5637142,226.537646 70.6559028,232.832609 C71.0227204,232.108299 71.4050811,231.393316 71.7936591,230.681442 C75.443183,223.951271 79.8232335,217.768219 84.0012235,212.530189 C94.1384446,219.885192 104.045627,225.365695 112.208873,227.641208 C112.208873,227.641208 121.127514,225.390564 134.951562,220.597067 C153.121466,231.856501 169.140203,255.189829 169.140203,255.189829 L169.140203,255.189829 L169.140203,255.189829 Z M117.586792,193.409046 C107.182228,188.901542 93.3643974,177.803756 83.9452682,168.378409 C71.2092379,155.642379 64.3080937,144.793284 61.6595465,138.041353 C66.1328557,122.793556 83.3173262,70.1210391 116.321581,34.7107092 C156.124397,27.9525618 197.820364,35.2174149 215.968507,39.2182132 C219.966197,57.3601398 227.240375,99.0654323 220.476011,138.865139 C185.283285,171.695311 133.372382,188.767871 117.586792,193.409046 L117.586792,193.409046 L117.586792,193.409046 Z" fill="#54A3DA"></path>
		<circle fill="#F1616E" cx="152.474869" cy="103.050868" r="27.2595192"></circle>
	</g>
</svg>
